X:59
M:4/4
L:1/4
Q:1/2=105
K:A
a2aa | a2ed/c/ | feB/c/d/B/ | c2Af/g/ | a2ed | c2fe | ^def/e/f/^d/ | e3e ||
geae/f/ | ga/g/fe/d/ | c/B/c/d/B>A | A2A2 ||
M:3/4

